Newaita-dark/mimetypes/64/text-x-sass.svg

<?xml version="1.0" encoding="UTF-8"?>
<svg xmlns="http://www.w3.org/2000/svg" xmlns:xlink="http://www.w3.org/1999/xlink" width="64px" height="64px" viewBox="0 0 64 64" version="1.1">
<defs>
<linearGradient id="linear0" gradientUnits="userSpaceOnUse" x1="254" y1="233.5" x2="254" y2="254.666672" gradientTransform="matrix(0.125012,0,0,0.125012,1.323044,26.877571)">
<stop offset="0" style="stop-color:rgb(0%,0%,0%);stop-opacity:0.27451;"/>
<stop offset="1" style="stop-color:rgb(0%,0%,0%);stop-opacity:0;"/>
</linearGradient>
<radialGradient id="radial0" gradientUnits="userSpaceOnUse" cx="450.908936" cy="189.579361" fx="450.908936" fy="189.579361" r="21.166656" gradientTransform="matrix(0.000000348341,-0.156265,-0.281277,-0.000000203077,98.969136,127.190673)">
<stop offset="0" style="stop-color:rgb(0%,0%,0%);stop-opacity:0.313726;"/>
<stop offset="0.222222" style="stop-color:rgb(0%,0%,0%);stop-opacity:0.27451;"/>
<stop offset="1" style="stop-color:rgb(0%,0%,0%);stop-opacity:0;"/>
</radialGradient>
<radialGradient id="radial1" gradientUnits="userSpaceOnUse" cx="450.908936" cy="189.579361" fx="450.908936" fy="189.579361" r="21.166656" gradientTransform="matrix(-0.000000348341,0.156265,0.281277,0.000000203077,-36.786102,-15.054954)">
<stop offset="0" style="stop-color:rgb(0%,0%,0%);stop-opacity:0.313726;"/>
<stop offset="0.222222" style="stop-color:rgb(0%,0%,0%);stop-opacity:0.27451;"/>
<stop offset="1" style="stop-color:rgb(0%,0%,0%);stop-opacity:0;"/>
</radialGradient>
<radialGradient id="radial2" gradientUnits="userSpaceOnUse" cx="450.908936" cy="189.579361" fx="450.908936" fy="189.579361" r="21.166656" gradientTransform="matrix(-0.000000348341,-0.156265,0.281277,-0.000000203077,-36.786102,127.190673)">
<stop offset="0" style="stop-color:rgb(0%,0%,0%);stop-opacity:0.313726;"/>
<stop offset="0.222222" style="stop-color:rgb(0%,0%,0%);stop-opacity:0.27451;"/>
<stop offset="1" style="stop-color:rgb(0%,0%,0%);stop-opacity:0;"/>
</radialGradient>
<radialGradient id="radial3" gradientUnits="userSpaceOnUse" cx="450.908936" cy="189.579361" fx="450.908936" fy="189.579361" r="21.166656" gradientTransform="matrix(0.000000348341,0.156265,-0.281277,0.000000203077,98.969136,-15.054958)">
<stop offset="0" style="stop-color:rgb(0%,0%,0%);stop-opacity:0.313726;"/>
<stop offset="0.222222" style="stop-color:rgb(0%,0%,0%);stop-opacity:0.27451;"/>
<stop offset="1" style="stop-color:rgb(0%,0%,0%);stop-opacity:0;"/>
</radialGradient>
<linearGradient id="linear1" gradientUnits="userSpaceOnUse" x1="940" y1="1695.118164" x2="940" y2="175.118118" gradientTransform="matrix(0.0330761,0,0,0.0330761,0,0)">
<stop offset="0" style="stop-color:rgb(95.686275%,56.078434%,69.411767%);stop-opacity:1;"/>
<stop offset="1" style="stop-color:rgb(97.254902%,73.333335%,81.568629%);stop-opacity:1;"/>
</linearGradient>
<linearGradient id="linear2" gradientUnits="userSpaceOnUse" x1="249.189423" y1="233.5" x2="249.189423" y2="254.666687" gradientTransform="matrix(0.0597883,0,0,0.218771,30.084845,-32.721821)">
<stop offset="0" style="stop-color:rgb(0%,0%,0%);stop-opacity:0.27451;"/>
<stop offset="1" style="stop-color:rgb(0%,0%,0%);stop-opacity:0;"/>
</linearGradient>
<linearGradient id="linear3" gradientUnits="userSpaceOnUse" x1="338.666656" y1="233.5" x2="338.666656" y2="-168.666672" gradientTransform="matrix(0.125012,0,0,0.125012,0,26.877566)">
<stop offset="0" style="stop-color:rgb(92.54902%,25.098041%,47.843137%);stop-opacity:1;"/>
<stop offset="1" style="stop-color:rgb(94.117647%,38.431373%,57.254905%);stop-opacity:1;"/>
</linearGradient>
<linearGradient id="linear4" gradientUnits="userSpaceOnUse" x1="248.708344" y1="233.5" x2="243.416672" y2="-168.666672" gradientTransform="matrix(1.141048,0,0,1.141048,-31.893377,-8.591855)">
<stop offset="0" style="stop-color:rgb(92.54902%,25.098041%,47.843137%);stop-opacity:1;"/>
<stop offset="1" style="stop-color:rgb(94.117647%,38.431373%,57.254905%);stop-opacity:1;"/>
</linearGradient>
</defs>
<g id="surface1">
<path style=" stroke:none;fill-rule:nonzero;fill:url(#linear0);" d="M 15.875 56.066406 L 46.304688 56.066406 L 46.304688 58.714844 L 15.875 58.714844 Z M 15.875 56.066406 "/>
<path style=" stroke:none;fill-rule:nonzero;fill:url(#radial0);" d="M 46.304688 56.066406 L 51.597656 56.066406 L 51.597656 53.421875 L 46.304688 53.421875 Z M 46.304688 56.066406 "/>
<path style=" stroke:none;fill-rule:nonzero;fill:url(#radial1);" d="M 15.875 56.066406 L 10.585938 56.066406 L 10.585938 58.714844 L 15.875 58.714844 Z M 15.875 56.066406 "/>
<path style=" stroke:none;fill-rule:nonzero;fill:url(#radial2);" d="M 15.875 56.066406 L 10.585938 56.066406 L 10.585938 53.421875 L 15.875 53.421875 Z M 15.875 56.066406 "/>
<path style=" stroke:none;fill-rule:nonzero;fill:url(#radial3);" d="M 46.304688 56.066406 L 51.597656 56.066406 L 51.597656 58.714844 L 46.304688 58.714844 Z M 46.304688 56.066406 "/>
<path style=" stroke:none;fill-rule:nonzero;fill:url(#linear1);" d="M 37.085938 5.792969 L 13.230469 5.792969 C 11.765625 5.792969 10.585938 6.972656 10.585938 8.4375 L 10.585938 53.421875 C 10.585938 54.886719 11.765625 56.066406 13.230469 56.066406 L 48.953125 56.066406 C 50.417969 56.066406 51.597656 54.886719 51.597656 53.421875 L 51.597656 20.308594 Z M 37.085938 5.792969 "/>
<path style=" stroke:none;fill-rule:nonzero;fill:url(#linear2);" d="M 37.046875 18.359375 L 49.613281 18.359375 L 51.597656 20.34375 L 51.597656 22.992188 L 37.046875 22.992188 Z M 37.046875 18.359375 "/>
<path style=" stroke:none;fill-rule:nonzero;fill:rgb(0%,0%,0%);fill-opacity:0.235294;" d="M 10.585938 52.394531 L 10.585938 53.421875 C 10.585938 54.886719 11.765625 56.066406 13.230469 56.066406 L 48.953125 56.066406 C 50.417969 56.066406 51.597656 54.886719 51.597656 53.421875 L 51.597656 52.394531 C 51.597656 53.859375 50.417969 55.039062 48.953125 55.039062 L 13.230469 55.039062 C 11.765625 55.039062 10.585938 53.859375 10.585938 52.394531 Z M 10.585938 52.394531 "/>
<path style=" stroke:none;fill-rule:nonzero;fill:rgb(100%,100%,100%);fill-opacity:0.392157;" d="M 13.230469 5.792969 C 11.765625 5.792969 10.585938 6.972656 10.585938 8.4375 L 10.585938 9.429688 C 10.585938 7.964844 11.765625 6.785156 13.230469 6.785156 L 37.085938 6.785156 L 51.597656 21.300781 L 51.597656 20.308594 L 37.085938 5.792969 Z M 13.230469 5.792969 "/>
<path style=" stroke:none;fill-rule:nonzero;fill:url(#linear3);" d="M 51.597656 20.308594 L 37.085938 5.792969 L 37.085938 17.660156 C 37.085938 19.125 38.265625 20.308594 39.730469 20.308594 Z M 51.597656 20.308594 "/>
<path style=" stroke:none;fill-rule:nonzero;fill:rgb(0%,0%,0%);fill-opacity:0.235294;" d="M 37.085938 17.039062 L 37.085938 17.660156 C 37.085938 19.125 38.265625 20.308594 39.730469 20.308594 L 51.597656 20.308594 L 50.976562 19.683594 L 39.730469 19.683594 C 38.265625 19.683594 37.085938 18.503906 37.085938 17.039062 Z M 37.085938 17.039062 "/>
<path style=" stroke:none;fill-rule:nonzero;fill:rgb(100%,100%,100%);fill-opacity:0.392157;" d="M 37.085938 5.792969 L 37.085938 6.785156 L 50.605469 20.308594 L 51.597656 20.308594 Z M 37.085938 5.792969 "/>
<path style=" stroke:none;fill-rule:nonzero;fill:rgb(12.941177%,12.941177%,12.941177%);fill-opacity:1;" d="M 37.082031 5.605469 C 36.980469 5.605469 36.898438 5.691406 36.898438 5.792969 L 36.898438 17.660156 C 36.898438 19.226562 38.164062 20.496094 39.730469 20.496094 L 51.597656 20.496094 C 51.675781 20.492188 51.742188 20.449219 51.773438 20.378906 C 51.800781 20.308594 51.785156 20.226562 51.730469 20.175781 L 37.214844 5.660156 C 37.179688 5.625 37.132812 5.605469 37.082031 5.605469 Z M 37.273438 6.246094 L 51.144531 20.117188 L 39.730469 20.117188 C 38.363281 20.117188 37.273438 19.027344 37.273438 17.660156 Z M 37.273438 6.246094 "/>
<path style=" stroke:none;fill-rule:nonzero;fill:rgb(12.941177%,12.941177%,12.941177%);fill-opacity:1;" d="M 13.230469 5.605469 C 11.664062 5.605469 10.398438 6.871094 10.398438 8.4375 L 10.398438 53.421875 C 10.398438 54.988281 11.664062 56.253906 13.230469 56.253906 L 48.953125 56.253906 C 50.519531 56.253906 51.785156 54.988281 51.785156 53.421875 L 51.785156 20.308594 C 51.785156 20.257812 51.765625 20.210938 51.730469 20.175781 L 37.214844 5.660156 C 37.179688 5.625 37.132812 5.605469 37.085938 5.605469 Z M 13.230469 5.980469 L 37.007812 5.980469 L 51.410156 20.382812 L 51.410156 53.421875 C 51.410156 54.785156 50.316406 55.878906 48.953125 55.878906 L 13.230469 55.878906 C 11.863281 55.878906 10.773438 54.785156 10.773438 53.421875 L 10.773438 8.4375 C 10.773438 7.074219 11.863281 5.980469 13.230469 5.980469 Z M 13.230469 5.980469 "/>
<path style="fill-rule:nonzero;fill:url(#linear4);stroke-width:3;stroke-linecap:butt;stroke-linejoin:miter;stroke:rgb(12.941177%,12.941177%,12.941177%);stroke-opacity:1;stroke-miterlimit:4;" d="M 324.968967 52.66194 C 317.938388 52.755681 311.84522 54.318031 306.751957 56.692805 C 304.877136 53.161892 303.002315 50.03719 302.689845 47.724911 C 302.31488 45.037668 301.908669 43.412823 302.31488 40.19438 C 302.752339 36.975937 304.720901 32.413873 304.720901 32.038909 C 304.689654 31.695192 304.283442 30.0391 300.252577 30.007853 C 296.221712 29.945359 292.722046 30.757781 292.315835 31.757686 C 291.940871 32.788837 291.159696 35.101117 290.628496 37.507137 C 289.941062 41.006803 282.566766 53.443115 278.348419 60.004988 C 276.97355 57.442733 275.817411 55.224195 275.567435 53.411868 C 275.223717 50.724625 274.786259 49.068533 275.223717 45.85009 C 275.661176 42.662894 277.629738 38.10083 277.629738 37.725866 C 277.567244 37.382149 277.192279 35.726057 273.130167 35.69481 C 269.099302 35.632316 265.599637 36.444738 265.224672 37.444643 C 264.818461 38.475794 264.381003 40.850567 263.537333 43.162847 C 262.724911 45.506373 252.913348 66.285639 250.351093 71.691372 C 249.069965 74.472357 247.913825 76.659648 247.101403 78.159505 C 246.288981 79.659361 247.070156 78.284493 246.976415 78.440728 C 246.288981 79.690608 245.882769 80.40929 245.882769 80.40929 L 245.882769 80.503031 C 245.320323 81.440441 244.757877 82.315358 244.476654 82.315358 C 244.289172 82.315358 243.88296 79.815597 244.539148 76.378425 C 246.007757 69.160364 249.53867 57.911438 249.476176 57.505227 C 249.476176 57.317745 250.163611 55.349183 247.226391 54.318031 C 244.351666 53.318127 243.320514 55.005466 243.101785 55.005466 C 242.851809 55.005466 242.664327 55.599159 242.664327 55.599159 C 242.664327 55.599159 245.851522 42.944118 236.571159 42.944118 C 230.790461 42.944118 222.791225 48.943545 218.822853 54.443019 C 216.291845 55.755394 210.979852 58.505132 205.324143 61.473598 C 203.168098 62.598491 200.918313 63.785877 198.824763 64.879523 L 198.387305 64.410818 C 187.169626 53.005657 166.421608 44.943927 167.265277 29.632889 C 167.577747 24.039673 169.64005 9.353575 207.136469 -8.425977 C 237.852286 -23.018333 262.443688 -19.018715 266.724529 -10.113316 C 272.78645 2.60422 253.569535 26.226964 221.635085 29.632889 C 209.479996 30.914016 203.074357 26.445693 201.48076 24.758354 C 199.793421 23.008521 199.543445 22.91478 198.918504 23.258497 C 197.9186 23.789697 198.54354 25.352048 198.918504 26.289458 C 199.855915 28.632984 203.793039 32.820084 210.448653 34.913634 C 216.291845 36.757208 230.571731 37.757113 247.851331 31.413969 C 267.193234 24.258402 282.285543 4.447794 277.848467 -12.081878 C 273.348896 -28.955266 244.007948 -34.485988 216.260598 -25.111883 C 199.762174 -19.487421 181.857633 -10.738256 168.983863 0.729399 C 153.704072 14.321851 151.266805 26.226964 152.297956 31.163993 C 155.860116 48.756063 181.326434 60.223717 191.512961 68.722906 C 191.013009 69.004129 190.544304 69.254105 190.106846 69.472834 C 185.013582 71.847607 165.577938 81.534182 160.734651 91.783204 C 155.235176 103.375847 161.57832 111.7188 165.827914 112.812445 C 178.920414 116.312111 192.325384 110.062708 199.605939 99.78244 C 206.823999 89.502171 205.949083 76.159696 202.605652 70.066528 L 202.511911 69.847798 L 206.511529 67.598013 C 209.073784 66.16065 211.63604 64.785782 213.885825 63.629642 C 212.604697 66.879332 211.729781 70.753962 211.261076 76.347178 C 210.698629 82.940298 213.510861 91.439486 217.260503 94.814164 C 218.885347 96.282774 220.85391 96.314021 222.072543 96.314021 C 226.384631 96.314021 228.353193 92.908096 230.509237 88.845984 C 233.165234 83.877709 235.540007 78.097011 235.540007 78.097011 C 235.540007 78.097011 232.571541 93.689272 240.633271 93.689272 C 243.57049 93.689272 246.50771 90.064618 247.851331 88.189797 L 247.851331 88.283538 C 247.851331 88.283538 247.913825 88.15855 248.07006 87.908574 C 248.382531 87.471115 248.538766 87.189892 248.538766 87.189892 L 248.538766 87.127398 C 249.726152 85.158836 252.350902 80.72176 256.288026 73.347464 C 261.350042 63.848371 266.19333 51.974505 266.19333 51.974505 C 266.19333 51.974505 266.662035 54.880478 268.130645 59.661271 C 268.974314 62.50475 270.880382 65.629451 272.317745 68.660412 C 271.161605 70.222763 270.442924 71.128926 270.442924 71.128926 L 270.474171 71.19142 C 269.536761 72.378807 268.474362 73.659934 267.380716 74.941062 C 263.381098 79.503126 258.600305 84.690131 257.975365 86.189988 C 257.225436 87.939821 257.381671 89.252195 258.819034 90.283347 C 259.881433 91.033275 261.756254 91.18951 263.756063 91.033275 C 267.380716 90.814546 269.880478 89.970877 271.130358 89.439677 C 273.09892 88.752243 275.348706 87.752339 277.50475 86.252482 C 281.410627 83.502744 283.816647 79.56562 283.566671 74.347369 C 283.47293 71.441396 282.473025 68.629165 281.254392 65.910674 C 281.629356 65.441969 281.973073 64.942017 282.31679 64.442065 C 288.534946 55.786641 293.31574 46.287548 293.31574 46.287548 C 293.31574 46.287548 293.784445 49.224768 295.221808 54.005561 C 295.971736 56.442829 297.471593 59.067578 298.815215 61.692327 C 293.00327 66.223145 289.347369 71.441396 288.097488 74.909815 C 285.785209 81.252959 287.566289 84.127685 291.003461 84.815119 C 292.534564 85.096342 294.721855 84.440155 296.377947 83.752721 C 298.409003 83.12778 300.877518 82.034135 303.15855 80.440537 C 307.064427 77.659552 310.845316 73.816169 310.657834 68.629165 C 310.532846 66.223145 309.876658 63.879618 308.970495 61.629833 C 313.907523 59.692518 320.281915 58.567626 328.406139 59.505036 C 345.873221 61.442351 349.310393 71.81636 348.654205 76.159696 C 347.998018 80.503031 344.342117 82.909051 343.123483 83.627732 C 341.90485 84.346414 341.529886 84.59639 341.623627 85.127589 C 341.779862 85.908765 342.342308 85.877518 343.404706 85.75253 C 344.842069 85.5338 352.591329 82.19037 352.903799 74.191134 C 353.372505 63.910865 343.123483 52.693187 324.968967 52.818175 Z M 190.325575 95.90781 C 184.576124 101.938484 176.4519 104.219516 172.983481 102.282201 C 169.265086 100.219898 170.733696 91.345745 177.826768 84.971354 C 182.138857 81.065477 187.732072 77.503317 191.41922 75.284779 C 192.26289 74.784827 193.51277 74.097393 195.012627 73.222476 C 195.231356 73.097488 195.387591 73.003747 195.387591 73.003747 C 195.668815 72.878759 195.981285 72.66003 196.293755 72.472548 C 198.918504 81.596676 196.418743 89.595913 190.325575 95.90781 Z M 232.509046 68.597918 C 230.509237 73.253723 226.259643 85.252577 223.728635 84.59639 C 221.510097 84.033944 220.197722 74.941062 223.291177 65.973168 C 224.853528 61.442351 228.196958 56.067864 230.16552 53.974314 C 233.321469 50.599637 236.789888 49.505991 237.633557 50.88086 C 238.664709 52.66194 233.758927 65.660698 232.509046 68.597918 Z M 267.286975 84.440155 C 266.443306 84.846366 265.662131 85.158836 265.287166 84.940107 C 265.03719 84.752625 265.662131 84.221426 265.662131 84.221426 C 265.662131 84.221426 270.005466 79.753102 271.724052 77.722046 C 272.723956 76.503413 273.880096 75.128544 275.129976 73.566193 L 275.129976 74.003652 C 275.129976 79.378138 269.724243 82.971545 267.286975 84.440155 Z M 294.128162 78.596963 C 293.503222 78.159505 293.565716 76.784636 295.690513 72.441301 C 296.534182 70.722715 298.409003 67.847989 301.658693 65.129499 C 302.064904 66.223145 302.283633 67.31679 302.252386 68.316695 C 302.221139 75.06605 297.19037 77.565811 294.128162 78.596963 Z M 294.128162 78.596963 " transform="matrix(0.125012,0,0,0.125012,0,26.877566)"/>
</g>
</svg>

<svg xmlns="http://www.w3.org/2000/svg" width="64pt" height="64pt" viewBox="0 0 64 64"><defs><linearGradient id="a" gradientUnits="userSpaceOnUse" x1="254" y1="233.5" x2="254" y2="254.667" gradientTransform="translate(1.323 26.878) scale(.12501)"><stop offset="0" stop-opacity=".275"/><stop offset="1" stop-opacity="0"/></linearGradient><radialGradient id="b" gradientUnits="userSpaceOnUse" cx="450.909" cy="189.579" fx="450.909" fy="189.579" r="21.167" gradientTransform="matrix(0 -.15626 -.28128 0 98.97 127.19)"><stop offset="0" stop-opacity=".314"/><stop offset=".222" stop-opacity=".275"/><stop offset="1" stop-opacity="0"/></radialGradient><radialGradient id="c" gradientUnits="userSpaceOnUse" cx="450.909" cy="189.579" fx="450.909" fy="189.579" r="21.167" gradientTransform="matrix(0 .15626 .28128 0 -36.786 -15.055)"><stop offset="0" stop-opacity=".314"/><stop offset=".222" stop-opacity=".275"/><stop offset="1" stop-opacity="0"/></radialGradient><radialGradient id="d" gradientUnits="userSpaceOnUse" cx="450.909" cy="189.579" fx="450.909" fy="189.579" r="21.167" gradientTransform="matrix(0 -.15626 .28128 0 -36.786 127.19)"><stop offset="0" stop-opacity=".314"/><stop offset=".222" stop-opacity=".275"/><stop offset="1" stop-opacity="0"/></radialGradient><radialGradient id="e" gradientUnits="userSpaceOnUse" cx="450.909" cy="189.579" fx="450.909" fy="189.579" r="21.167" gradientTransform="matrix(0 .15626 -.28128 0 98.97 -15.055)"><stop offset="0" stop-opacity=".314"/><stop offset=".222" stop-opacity=".275"/><stop offset="1" stop-opacity="0"/></radialGradient><linearGradient id="f" gradientUnits="userSpaceOnUse" x1="940" y1="1695.118" x2="940" y2="175.118" gradientTransform="scale(.03308)"><stop offset="0" stop-color="#f48fb1"/><stop offset="1" stop-color="#f8bbd0"/></linearGradient><linearGradient id="g" gradientUnits="userSpaceOnUse" x1="249.189" y1="233.5" x2="249.189" y2="254.667" gradientTransform="matrix(.05979 0 0 .21877 30.085 -32.722)"><stop offset="0" stop-opacity=".275"/><stop offset="1" stop-opacity="0"/></linearGradient><linearGradient id="h" gradientUnits="userSpaceOnUse" x1="338.667" y1="233.5" x2="338.667" y2="-168.667" gradientTransform="translate(0 26.878) scale(.12501)"><stop offset="0" stop-color="#ec407a"/><stop offset="1" stop-color="#f06292"/></linearGradient><linearGradient id="i" gradientUnits="userSpaceOnUse" x1="248.708" y1="233.5" x2="243.417" y2="-168.667" gradientTransform="matrix(1.14105 0 0 1.14105 -31.893 -8.592)"><stop offset="0" stop-color="#ec407a"/><stop offset="1" stop-color="#f06292"/></linearGradient></defs><path d="M15.875 56.066h30.43v2.649h-30.43zm0 0" fill="url(#a)"/><path d="M46.305 56.066h5.293v-2.644h-5.293zm0 0" fill="url(#b)"/><path d="M15.875 56.066h-5.29v2.649h5.29zm0 0" fill="url(#c)"/><path d="M15.875 56.066h-5.29v-2.644h5.29zm0 0" fill="url(#d)"/><path d="M46.305 56.066h5.293v2.649h-5.293zm0 0" fill="url(#e)"/><path d="M37.086 5.793H13.23a2.639 2.639 0 0 0-2.644 2.644v44.985a2.639 2.639 0 0 0 2.644 2.644h35.723a2.639 2.639 0 0 0 2.645-2.644V20.309zm0 0" fill="url(#f)"/><path d="M37.047 18.36h12.566l1.985 1.984v2.648H37.047zm0 0" fill="url(#g)"/><path d="M10.586 52.395v1.027a2.639 2.639 0 0 0 2.644 2.644h35.723a2.639 2.639 0 0 0 2.645-2.644v-1.027a2.639 2.639 0 0 1-2.645 2.644H13.23a2.639 2.639 0 0 1-2.644-2.644zm0 0" fill-opacity=".235"/><path d="M13.23 5.793a2.639 2.639 0 0 0-2.644 2.644v.993a2.639 2.639 0 0 1 2.644-2.645h23.856l14.512 14.516v-.992L37.086 5.793zm0 0" fill="#fff" fill-opacity=".392"/><path d="M51.598 20.309L37.086 5.793V17.66a2.642 2.642 0 0 0 2.644 2.649zm0 0" fill="url(#h)"/><path d="M37.086 17.04v.62a2.642 2.642 0 0 0 2.644 2.649h11.868l-.621-.625H39.73a2.639 2.639 0 0 1-2.644-2.645zm0 0" fill-opacity=".235"/><path d="M37.086 5.793v.992l13.52 13.524h.992zm0 0" fill="#fff" fill-opacity=".392"/><path d="M37.082 5.605a.187.187 0 0 0-.184.188V17.66a2.832 2.832 0 0 0 2.832 2.836h11.868a.198.198 0 0 0 .175-.117.186.186 0 0 0-.043-.203L37.215 5.66a.186.186 0 0 0-.133-.055zm.191.641l13.872 13.871H39.73a2.444 2.444 0 0 1-2.457-2.457zm0 0" fill="#212121"/><path d="M13.23 5.605a2.83 2.83 0 0 0-2.832 2.832v44.985a2.83 2.83 0 0 0 2.832 2.832h35.723a2.83 2.83 0 0 0 2.832-2.832V20.309c0-.051-.02-.098-.055-.133L37.215 5.66a.184.184 0 0 0-.13-.055zm0 .375h23.778L51.41 20.383v33.039a2.449 2.449 0 0 1-2.457 2.457H13.23a2.447 2.447 0 0 1-2.457-2.457V8.438A2.447 2.447 0 0 1 13.23 5.98zm0 0" fill="#212121"/><path d="M324.969 52.662c-7.03.094-13.124 1.656-18.217 4.03-1.875-3.53-3.75-6.655-4.062-8.967-.375-2.687-.781-4.312-.375-7.53.437-3.22 2.406-7.781 2.406-8.156-.031-.344-.438-2-4.468-2.031-4.031-.063-7.531.75-7.937 1.75-.375 1.03-1.156 3.343-1.688 5.75-.687 3.499-8.061 15.935-12.28 22.497-1.374-2.562-2.53-4.78-2.78-6.593-.344-2.687-.782-4.343-.344-7.562.437-3.187 2.406-7.75 2.406-8.124-.063-.344-.438-2-4.5-2.031-4.03-.063-7.53.75-7.905 1.75-.407 1.03-.844 3.406-1.688 5.718-.812 2.343-10.624 23.123-13.186 28.528a109.55 109.55 0 0 1-3.25 6.469c-.812 1.5-.03.124-.125.28-.687 1.25-1.093 1.97-1.093 1.97v.093c-.563.937-1.125 1.812-1.406 1.812-.188 0-.594-2.5.062-5.937 1.469-7.218 5-18.467 4.937-18.873 0-.187.688-2.156-2.25-3.187-2.874-1-3.905.687-4.124.687-.25 0-.438.594-.438.594s3.188-12.655-6.093-12.655c-5.78 0-13.78 6-17.748 11.499-2.531 1.312-7.843 4.062-13.499 7.03-2.156 1.125-4.406 2.313-6.5 3.407l-.437-.47c-11.217-11.404-31.965-19.466-31.122-34.777.313-5.593 2.375-20.28 39.871-38.059 30.716-14.592 55.308-10.593 59.589-1.687 6.061 12.717-13.155 36.34-45.09 39.746-12.155 1.281-18.56-3.187-20.154-4.875-1.688-1.75-1.938-1.843-2.562-1.5-1 .532-.375 2.094 0 3.031.937 2.344 4.874 6.531 11.53 8.625 5.843 1.843 20.123 2.843 37.402-3.5 19.342-7.156 34.435-26.966 29.997-43.496-4.5-16.873-33.84-22.404-61.587-13.03-16.499 5.625-34.403 14.374-47.277 25.841-15.28 13.593-17.717 25.498-16.686 30.435 3.562 17.592 29.028 29.06 39.215 37.559-.5.281-.969.531-1.406.75-5.093 2.375-24.53 12.061-29.372 22.31-5.5 11.593.843 19.936 5.093 21.03 13.092 3.5 26.497-2.75 33.778-13.03 7.218-10.28 6.343-23.623 3-29.716l-.094-.22 4-2.249a234.475 234.475 0 0 1 7.374-3.968c-1.281 3.25-2.156 7.124-2.625 12.717-.562 6.593 2.25 15.092 6 18.467 1.624 1.469 3.593 1.5 4.812 1.5 4.312 0 6.28-3.406 8.436-7.468 2.656-4.968 5.031-10.749 5.031-10.749s-2.968 15.592 5.093 15.592c2.937 0 5.875-3.624 7.218-5.5v.095s.063-.125.22-.375c.312-.438.468-.72.468-.72v-.062c1.187-1.968 3.812-6.405 7.749-13.78 5.062-9.499 9.905-21.372 9.905-21.372s.469 2.905 1.938 7.686c.843 2.844 2.75 5.968 4.187 9-1.156 1.562-1.875 2.468-1.875 2.468l.031.062c-.937 1.188-2 2.469-3.093 3.75-4 4.562-8.78 9.75-9.406 11.249-.75 1.75-.593 3.062.844 4.093 1.062.75 2.937.907 4.937.75 3.625-.218 6.124-1.062 7.374-1.593 1.969-.688 4.219-1.688 6.375-3.188 3.906-2.75 6.312-6.686 6.062-11.905-.094-2.906-1.094-5.718-2.313-8.436.375-.469.72-.969 1.063-1.469 6.218-8.655 10.999-18.154 10.999-18.154s.468 2.937 1.906 7.718c.75 2.437 2.25 5.062 3.593 7.686-5.812 4.531-9.468 9.75-10.718 13.218-2.312 6.343-.53 9.218 2.906 9.905 1.532.281 3.719-.375 5.375-1.062a24.995 24.995 0 0 0 6.78-3.312c3.906-2.781 7.687-6.625 7.5-11.812-.125-2.406-.781-4.75-1.688-7 4.938-1.936 11.312-3.061 19.436-2.124 17.467 1.937 20.904 12.311 20.248 16.655-.656 4.343-4.312 6.75-5.53 7.468-1.22.718-1.594.968-1.5 1.5.156.78.718.75 1.78.625 1.438-.22 9.187-3.563 9.5-11.562.469-10.28-9.78-21.498-27.935-21.373zM190.326 95.908c-5.75 6.03-13.874 8.312-17.343 6.374-3.718-2.062-2.25-10.936 4.844-17.31 4.312-3.907 9.905-7.469 13.592-9.687.844-.5 2.094-1.188 3.594-2.063.218-.125.375-.218.375-.218.28-.125.593-.344.906-.531 2.625 9.124.125 17.123-5.968 23.435zm42.183-27.31c-2 4.656-6.25 16.655-8.78 15.998-2.219-.562-3.531-9.655-.438-18.623 1.563-4.53 4.906-9.905 6.875-11.999 3.155-3.374 6.624-4.468 7.468-3.093 1.03 1.78-3.875 14.78-5.125 17.717zm34.778 15.842c-.844.406-1.625.719-2 .5-.25-.187.375-.719.375-.719s4.343-4.468 6.062-6.499c1-1.219 2.156-2.593 3.406-4.156v.438c0 5.374-5.406 8.968-7.843 10.436zm26.841-5.843c-.625-.437-.562-1.812 1.563-6.156.843-1.718 2.718-4.593 5.968-7.312.406 1.094.625 2.188.593 3.188-.03 6.75-5.062 9.249-8.124 10.28zm0 0" transform="translate(0 26.878) scale(.12501)" fill="url(#i)" stroke-width="3" stroke="#212121"/></svg>
